X:15
T:Lady Catherine Stewart
T:Miss Catherine Stewart - Pettyvaich
R:jig
C:Wm. Marshall
B:Posthumous Works of William Marshall, 1845
D:Lake Bras D'Or, Theresa Morrison
Z:Paul Stewart Cranford (P.S.C.), <http://www.cranfordpub.com>
L:1/8
M:12/8
K:F
F2 d cAF GAF E2 G|F2 d cAF cde f2 c|
dfd cAF GAF E2 G|F2 d cAF  CDE F3:|
|:fcf agf egb bge|fcf agf dfd cBA|
BdB cBA GAF E2 C|F2 d cAF  CDE F3:|
